public/images/icons/src/iFrame.svg

<?xml version="1.0" encoding="utf-8"?>
<!-- Generated by IcoMoon.io -->
<!DOCTYPE svg PUBLIC "-//W3C//DTD SVG 1.1//EN" "http://www.w3.org/Graphics/SVG/1.1/DTD/svg11.dtd">
<svg version="1.1" xmlns="http://www.w3.org/2000/svg" xmlns:xlink="http://www.w3.org/1999/xlink" width="32" height="32" viewBox="0 0 32 32">
<path fill="#444444" d="M7.008 15.968c0-1.414 1.146-2.56 2.56-2.56s2.56 1.146 2.56 2.56c0 1.414-1.146 2.56-2.56 2.56s-2.56-1.146-2.56-2.56zM10.848 15.968c0-0.707-0.573-1.28-1.28-1.28s-1.28 0.573-1.28 1.28c0 0.707 0.573 1.28 1.28 1.28s1.28-0.573 1.28-1.28zM13.408 15.968c0-1.414 1.146-2.56 2.56-2.56s2.56 1.146 2.56 2.56c0 1.414-1.146 2.56-2.56 2.56s-2.56-1.146-2.56-2.56zM17.248 15.968c0-0.707-0.573-1.28-1.28-1.28s-1.28 0.573-1.28 1.28c0 0.707 0.573 1.28 1.28 1.28s1.28-0.573 1.28-1.28zM19.808 15.968c0-1.414 1.146-2.56 2.56-2.56s2.56 1.146 2.56 2.56c0 1.414-1.146 2.56-2.56 2.56s-2.56-1.146-2.56-2.56zM23.648 15.968c0-0.707-0.573-1.28-1.28-1.28s-1.28 0.573-1.28 1.28c0 0.707 0.573 1.28 1.28 1.28s1.28-0.573 1.28-1.28zM29.602 16.021l-9.797 9.773 0.902 0.908 10.741-10.681-10.78-10.702-0.902 0.908 9.835 9.794zM1.015 15.568l-0.457 0.454 10.742 10.681 0.903-0.908-9.83-9.773 9.867-9.794-0.902-0.908-10.323 10.248z"></path>
</svg>

<?xml version="1.0" encoding="utf-8"?> <!-- Generator: IcoMoon.io --> <!DOCTYPE svg PUBLIC "-//W3C//DTD SVG 1.1//EN" "http://www.w3.org/Graphics/SVG/1.1/DTD/svg11.dtd"> <svg width="32" height="32" viewBox="0 0 32 32" version="1.1" xmlns="http://www.w3.org/2000/svg" xmlns:xlink="http://www.w3.org/1999/xlink" xmlns:sketch="http://www.bohemiancoding.com/sketch/ns" fill="#000000"> <g><path d="M 7.008,15.968 C 7.008,14.554 8.154,13.408 9.568,13.408 C 10.982,13.408 12.128,14.554 12.128,15.968 C 12.128,17.382 10.982,18.528 9.568,18.528 C 8.154,18.528 7.008,17.382 7.008,15.968 Z M 10.848,15.968 C 10.848,15.261 10.275,14.688 9.568,14.688 C 8.861,14.688 8.288,15.261 8.288,15.968 C 8.288,16.675 8.861,17.248 9.568,17.248 C 10.275,17.248 10.848,16.675 10.848,15.968 Z M 10.848,15.968M 13.408,15.968 C 13.408,14.554 14.554,13.408 15.968,13.408 C 17.382,13.408 18.528,14.554 18.528,15.968 C 18.528,17.382 17.382,18.528 15.968,18.528 C 14.554,18.528 13.408,17.382 13.408,15.968 Z M 17.248,15.968 C 17.248,15.261 16.675,14.688 15.968,14.688 C 15.261,14.688 14.688,15.261 14.688,15.968 C 14.688,16.675 15.261,17.248 15.968,17.248 C 16.675,17.248 17.248,16.675 17.248,15.968 Z M 17.248,15.968M 19.808,15.968 C 19.808,14.554 20.954,13.408 22.368,13.408 C 23.782,13.408 24.928,14.554 24.928,15.968 C 24.928,17.382 23.782,18.528 22.368,18.528 C 20.954,18.528 19.808,17.382 19.808,15.968 Z M 23.648,15.968 C 23.648,15.261 23.075,14.688 22.368,14.688 C 21.661,14.688 21.088,15.261 21.088,15.968 C 21.088,16.675 21.661,17.248 22.368,17.248 C 23.075,17.248 23.648,16.675 23.648,15.968 Z M 23.648,15.968M 29.602,16.021 L 19.805,25.794 L 20.707,26.702 L 30.992,16.476 L 31.449,16.021 L 30.992,15.568 L 20.669,5.319 L 19.767,6.228 L 29.602,16.021 Z M 29.602,16.021M 1.015,15.568 L 0.558,16.021 L 1.014,16.476 L 11.299,26.702 L 12.202,25.794 L 2.372,16.021 L 12.24,6.228 L 11.338,5.319 L 1.015,15.568 Z M 1.015,15.568"></path></g></svg>
